X: 21131
T: Hugar Mu Fean
%R: air + jig
B: James Oswald "The Caledonian Pocket Companion" v.2 p.113 #1
Z: 2018 John Chambers <jc:trillian.mit.edu>
M: 3/4
L: 1/8
K: D
|: "_Slow"\
(A2 B2) d2 | Te4 e2 |\
e2 (gf)(ed) | {f2}Te4 e2 |\
(d2 e2) f2 | Tg4 a2 |\
Tf4 (ed) | B4 B2 |\
g2 (ag)(fe) | f2 (gf)(ed) |
Te4 d2 | TB4 A2 |\
Te3 de2 | Tf4 e2 |\
d4 B2 | A6 ::\
A2 (BA)(Bd) | Te4 (e/d/)B |\
Te4 (e/d/)B | Te4 (e/d/)B |
dAeAfA | g4 (ba) |\
Tf3 ed2 | B4 (d/e/)f |\
g2 G2 (ba) | f4 (b/a/)f |\
e2 (gf)(ed) | B4 (af) |\
e4 (ba) | f3 a ef |
{e}d2 B2 A2 | A6 ::\
A3 Bd2 | e2 E2 f>d |\
e2 E2 f>d | Te3 dB2 |\
(3(ded) (3(efe) (3(fgf) | g2 G2 b>a |
f2 (gf)(ed) | B4 ef |\
gGg2 (b/a/g) | fF f2 a/f/d |\
e2 f2 a2 | B4 (ba) | g4 (ba) | f3 a ef |
{e}d2 B2 A2 | A6 ::[M:6/8] "_Brisk"(f/e/) |\
d2A FDF | GBG E2G | FAd BAG |\
FGE D2 :: (f/g/) | afd afd |
bge bge | afd afd | (c/d/e)c A2(f/g/) |\
afd afd | bge bge | fed cBA | GFE D2 :|
